icons-rebrand/svg/battery-charging-bold.svg

<svg width="32" height="32" viewBox="0 0 32 32" fill="none" xmlns="http://www.w3.org/2000/svg">
<path d="M25 6H11C9.67441 6.00159 8.40356 6.52888 7.46622 7.46622C6.52888 8.40356 6.00159 9.67441 6 11V12H5C4.20459 12.0008 3.44199 12.3171 2.87956 12.8796C2.31712 13.442 2.00079 14.2046 2 15V17C2.00079 17.7954 2.31712 18.558 2.87956 19.1204C3.44199 19.6829 4.20459 19.9992 5 20H6V21C6.00159 22.3256 6.52888 23.5964 7.46622 24.5338C8.40356 25.4711 9.67441 25.9984 11 26H25C26.3257 25.9987 27.5967 25.4715 28.5341 24.5341C29.4715 23.5967 29.9987 22.3257 30 21V11C29.9984 9.67441 29.4711 8.40356 28.5338 7.46622C27.5964 6.52888 26.3256 6.00159 25 6ZM6 18H5C4.73478 18 4.48043 17.8946 4.29289 17.7071C4.10536 17.5196 4 17.2652 4 17V15C4 14.7348 4.10536 14.4804 4.29289 14.2929C4.48043 14.1054 4.73478 14 5 14H6V18ZM28 21C27.9989 21.7953 27.6825 22.5578 27.1202 23.1202C26.5578 23.6825 25.7953 23.9989 25 24H11C10.2046 23.9992 9.44199 23.6829 8.87956 23.1204C8.31712 22.558 8.00079 21.7954 8 21V11C8.00079 10.2046 8.31712 9.44199 8.87956 8.87956C9.44199 8.31712 10.2046 8.00079 11 8H25C25.7954 8.00079 26.558 8.31712 27.1204 8.87956C27.6829 9.44199 27.9992 10.2046 28 11V21Z" fill="#0F0F0F"/>
<path d="M25.37 13.0709C25.2481 13.0221 25.1176 12.9979 24.9863 12.9995C24.8549 13.0012 24.7251 13.0287 24.6044 13.0805C24.4837 13.1324 24.3744 13.2075 24.2827 13.3016C24.191 13.3956 24.1187 13.5069 24.07 13.6289C23.264 15.6459 22.23 16.8699 21.231 16.9859C20.182 17.0979 19.271 16.0459 18.818 15.4019C17.618 13.6889 16.11 12.8359 14.562 13.0229C13.296 13.1699 11.487 14.0889 10.071 17.6289C9.97749 17.8742 9.98411 18.1464 10.0895 18.3868C10.1949 18.6272 10.3906 18.8165 10.6343 18.9139C10.8781 19.0113 11.1504 19.009 11.3924 18.9074C11.6344 18.8058 11.8268 18.6131 11.928 18.3709C12.736 16.3519 13.78 15.1269 14.793 15.0099C15.558 14.9249 16.43 15.4799 17.181 16.5499C18.401 18.2919 19.931 19.1549 21.461 18.9719C22.718 18.8269 24.512 17.9099 25.928 14.3709C26.0263 14.1246 26.0229 13.8494 25.9184 13.6057C25.814 13.362 25.6171 13.1696 25.371 13.0709H25.37Z" fill="#0F0F0F"/>
</svg>

<svg width="32" height="32" viewBox="0 0 32 32" fill="none" xmlns="http://www.w3.org/2000/svg"><path d="M25 6H11a5.006 5.006 0 0 0-5 5v1H5a3.003 3.003 0 0 0-3 3v2a3.003 3.003 0 0 0 3 3h1v1a5.006 5.006 0 0 0 5 5h14a5.005 5.005 0 0 0 5-5V11a5.006 5.006 0 0 0-5-5zM6 18H5a1 1 0 0 1-1-1v-2a1 1 0 0 1 1-1h1v4zm22 3a3.004 3.004 0 0 1-3 3H11a3.003 3.003 0 0 1-3-3V11a3.003 3.003 0 0 1 3-3h14a3.003 3.003 0 0 1 3 3v10z" fill="#0F0F0F"/><path d="M25.37 13.071a1 1 0 0 0-1.3.558c-.806 2.017-1.84 3.241-2.839 3.357-1.049.112-1.96-.94-2.413-1.584-1.2-1.713-2.708-2.566-4.256-2.379-1.266.147-3.075 1.066-4.491 4.606a1 1 0 0 0 1.857.742c.808-2.019 1.852-3.244 2.865-3.361.765-.085 1.637.47 2.388 1.54 1.22 1.742 2.75 2.605 4.28 2.422 1.257-.145 3.051-1.062 4.467-4.601a1.001 1.001 0 0 0-.557-1.3z" fill="#0F0F0F"/></svg>
